X:1
T:♫ Franz Schubert: Sängers Morgenlied (D163 & D165) ♫ Sängers Morgenlied
T:♫ Franz Schubert: Sängers Morgenlied (D163 & D165) ♫ Sängers Morgenlied 
T:Erste und zweite Fassungen
T:Franz Schubert (1797-1828) D.163 & D.165 (1815)
T:Theodor Körner (1791-1813)
T:1. Erste Fassung : D163, 27. Februar 1815. Nach einer Reinschrift von Franz Schubert (Wienbibliothek im Rathaus)
T:2. Zweite Fassung : D165, 1. März 1815. Nach Breitkopf & Härtel (IMSLP) 
T:4. Vor der Augen wird es helle; Freundlich auf der zarten Spur Weht der Einklang der Natur, Und begeistert rauscht die Quelle, Munter tanzt die flücht'ge Welle Durch des Morgens stille Flur. 5. Und von süßer Lust durchdrungen Webt sich zarte Harmonie Durch des Lebens Poesie. Was die Seele tief durchklungen, Was berauscht der Mund gesungen, Glüht in hoher Melodie. 6. Des Gesanges muntern Söhnen Weicht im Leben jeder Schmerz, Und nur Liebe schwellt ihr Herz, In des Liedes Heil'gen Tönen Und im Morgenglanz des Schönen Fliegt die Seele himmelwärts. 
T:1. Süßes Licht! Aus goldnen Pforten Brichst du siegend durch die Nacht. Schöner Tag! Du bist erwacht. Mit geheimnisvollen Worten, In melodischen Akkorden Grüß' ich deine Rosenpracht! 2. Ach! der Liebe sanftes Wehen Schwellt mir das bewegte Herz, Sanft, wie ein geliebter Schmerz. Dürft' ich nur auf goldnen Höhen Mich im Morgenduft ergehen! Sehnsucht zieht mich himmelwärts. 3. Und der Seele kühnes Streben Trägt im stolzen Riesenlauf Durch die Wolken mich hinauf. Doch mit sanftem Geisterbeben Dringt das Lied ins inn're Leben, Löst den Sturm melodisch auf. 
T:Public Domain - Reference: Mutopia-2007/10/13-1051
T:Public Domain - Reference: Mutopia-2007/10/13-1051
T:Public Domain - Reference: Mutopia-2007/10/13-1051
T:Public Domain - Reference: Mutopia-2007/10/13-1051
C:Franz Schubert (1797-1828)
C:D.163 & D.165 (1815)
Z:Theodor Körner (1791-1813)
Z:Public Domain - Reference: Mutopia-2007/10/13-1051
%%score 1 { ( 2 4 6 ) | ( 3 5 ) }
L:1/8
Q:1/4=84
M:6/8
K:G
V:1 treble nm="Singstimme"
V:2 treble nm="Fortepiano"
V:4 treble 
V:6 treble 
V:3 treble 
V:5 treble 
V:1
"^Lieblich, etwas geschwind." z6 | z2 z g2 d | B2 G c3/2 d/ e | ^c2 d g/f/e/d/ =c/B/ | %4
w: |Sü- ßes|Licht aus gol- de- nen|Pfor- ten brichst * * * du *|
w: ||||
 A2 c e/d/^c/d/ =c/A/ | d3 z ^d d | e2 e/>f/ g2 ^c | d3- !fermata!d d d | _e2 e d2 d | %9
w: sie- gend durch * * * die *|Nacht, schö- ner|Tag du * bist er-|wacht. _ Mit ge-|heim- nis- vol- len|
w: |||||
 ^c2 c z d d | =e2 e d2 d | ^c2 c a/g/f/e/ d/=c/ | B2 d A2 d | B2 z f/g/a/f/ d/c/ | B2 d A2 e/d/ | %15
w: Wor- ten, in me-|lo- di\- schen Ak-|kor- den Grüß' * * * ich *|dei- ne Ro- sen-|pracht, grüß' * * * ich *|dei- ne Ro- sen *|
w: ||||||
 G2 z z2 z | !fermata!z6 :| z6 |[K:C][M:3/4][Q:1/4=48]"^Langsam." z2 e2- (3edc | (d2 (B2) (3B)c d | %20
w: pracht,|||1. Sü- * * ßes|Licht! _ _ _ Aus|
w: |||2. Ach! _ _ der|Lie * * * be|
 e2 (3eg^f (3ge c | c2 B2 (3Bc d | e3 e{^def} e3/2 ^G/ | A4 (3ed c | B2- (3Bc d (3de d | %25
w: gold- * * * * * nen|Pfor\- ten brichst * du|sie- gend durch die|Nacht, Schö- * ner|Tag! _ _ du bist * er-|
w: sanf- * * * * * tes|We- hen schwellt * mir|das be- weg- te|Herz, sanft, * wie|ein _ _ ge- lieb * ter|
 (d2 g2) z2 | z6 | z2 z2 g3/2 f/ | e3 d (3cB A | c2 B2 e3/2 e/ | g3 f (3ed c | e2 d2 z2 | %32
w: wacht. _||Mit ge\-|heim- nis- vol * len|Wor- ten, in me-|lo- di\- schen * Ak\-|kor- den|
w: Schmerz. *||Dürft' ich|nur auf gold' * nen|Hö- hen mich im|Mor- gen- duft * er-|ge- hen!|
 g3 f e d | c4 d^d | e4 z2 | g3 f e d | c4 (3ed B | c2 z2 z2 | z6 | z6 :| %40
w: Grüß' ich dei- ne|Ro- sen *|pracht,|grüß' ich dei- ne|Ro- * * sen-|pracht,|||
w: Sehn- sucht zieht mich|him- mel *|wärts.|Sehn- sucht zieht mich|him- * * mel-|wärts.|||
V:2
!p! (d'/^c'/e'/d'/c'/d'/ =c'/b/a/g/f/e/) | (d[^ce]f) g z z | z (gB) c z e | z (^cd) z BB | %4
 [EGA]3 z [CFA][CFA] | B,/D/"_cresc."G/D/B,/D/ A,/^D/F/D/A,/D/ | z6 | z3 z z (d | (_e3) d3) | %9
 ^c3 z z ([Ad] | [ce]3) ([Bd]3 | [G_B^c]3) [DA=c]3 | z [DGB][DGB] z [DFA][DFA] | %13
 z [DGB][DGB] z [DFAc][DFAc] | z [DGB][DGB] z [CFA][CFA] |!f! (G/F/G/B/d/f/ g/f/g/b/d'/f'/) | %16
 g' z z [DGB] z !fermata!z :| z6 |[K:C][M:3/4]!pp! (3(EGc (3EGc (3EGc) | (3(FGd (3FGd (3FGd) | %20
 (3(EGc (3EGc (3EGc) | (3(FGd (3FGd (3FGc) | (3(EGc (3EGc (3E^Gd) | (3(EAc (3CEA (3cBA) | %24
 (3(DGB (3DGB (3C^FA) | (3(B,EG (3B,EG (3=FGB) | (3(GBd (3fdB (3GBd) | (3(Bdf (3afd (3Bgf) | %28
 (3(EGc (3EGc (3E^Gd) | (3(EAc (3CEA (3cBA) |"_cresc." (3(Gdg (3Gdg (3Gcg) | (3(Geg (3Gdg (3GBd) | %32
 [Gcg]2 z2 z2 | (3(EGc (3EGc (3FGB) |!>(! (3(^GBe (3GB!>)!e (3Ace) | [Gc]2 z2 z2 | %36
!pp! (3(EAc (3EAc (3FGd) | c2 (3(cde (3gfd) | g2 (3(cde (3gfd) | (d2 c2) z2 :| %40
V:3
 (d/^c/e/d/c/d/ =c/B/A/G/F/E/) |[K:bass] (D3 G,) z z | z z[K:treble] ([=FG][EG]) z [CG] | %3
 z[K:bass] (!>!^A, B,2) G,G, | C,3 z D,D, | [G,,,G,,]3 [B,,,B,,]3 | %6
 G,/B,/E/B,/G,/!f!B,/ E,/A,/^C/A,/E,/A,/ | F,/A,/D/A,/F,/D,/ !fermata!z z (D | (_E3) D3) | %9
 ^C3 z z z | z6 | z3 F,3 | G,2 z D,2 z | G,2 z D,2 z | G,2 z D,2 z | %15
 [G,,B,,D,G,][G,B,D][G,B,D] !/![G,B,D]3 | [G,B,D] z z [G,,,G,,] z !fermata!z :| z6 | %18
[K:C][M:3/4] (.[C,G,]2 .[C,G,]2 .[C,G,]2) | (.[C,G,]2 .[C,G,]2 .[C,G,]2) | %20
 (.[C,G,]2 .[C,G,]2 .[C,G,]2) | (.[C,G,]2 .[C,G,]2 .[C,G,]2) | [C,G,]2 [C,,C,]2 [B,,,B,,]2 | %23
 [A,,,A,,]4 [A,,,A,,]2 | [D,,D,]4 [D,,D,]2 | G,,4 [G,B,D]>[G,B,D] | [G,B,D]4 [G,B,DF]>[G,B,DF] | %27
 [G,B,DF]6 | (B,2 D2) C2 | ([A,C]2 [^G,B,]2) C2 | (D2 F2) E2 | ([CE]2 [B,D]2) [F,G,B,]>[F,G,B,] | %32
 C2 z2 z2 | ([G,C]4 [G,B,]2) | [E,B,E]4 [A,CE]>[A,CE] | [E,G,CE]2 z2 z2 | (C4 B,2) | %37
 (3(E,G,C (3E,G,C (3F,G,B,) | (3(C,G,C (3E,G,C (3F,G,B,) | (B,2 C2) z2 :| %40
V:4
 x6 | (B_B[A=c]) [G=B] x2 | x6 | x G2 x [DG][CG] | x6 | x6 | x6 | x6 | x6 | x5 ([DF] | %10
 [=CG]3) ([DG]3 | E3) x3 | x6 | x6 | x6 | x3 g/f/g/b/d'/b/ | g x5 :| x6 |[K:C][M:3/4] x6 | x6 | %20
 x6 | x6 | x6 | x4 E2 | x6 | x6 | x6 | x6 | x6 | x4 E2 | x6 | x6 | x6 | x6 | x6 | G2 x4 | x6 | %37
 z2 (3z z (c (3BdG) | e2 (3z z c (3BdG | (F2 E2) x2 :| %40
V:5
 x6 |[K:bass] x6 | x2[K:treble] x3 z | x[K:bass] x5 | x6 | x6 | E,,3 [A,,,A,,]3 | %7
 D,, z z D,,/ !fermata!z/ x2 | x6 | x6 | x6 | x6 | x6 | x6 | x6 | x6 | x6 :| x6 |[K:C][M:3/4] x6 | %19
 x6 | x6 | x6 | x6 | x6 | x6 | x6 | x6 | x6 | ^G,4 A,2 | E,4 A,2 | B,4 C2 | G,4 z2 | [E,G,]2 x4 | %33
 x6 | x6 | x6 | G,4 G,2 | C,6 | C,6 | C,4 x2 :| %40
V:6
 x6 | x6 | x6 | x6 | x6 | x6 | x6 | x6 | x6 | x6 | x6 | x6 | x6 | x6 | x6 | x6 | x6 :| x6 | %18
[K:C][M:3/4] x6 | x6 | x6 | x6 | x6 | x6 | x6 | x6 | x6 | x6 | x6 | x6 | x6 | x6 | x6 | x6 | x6 | %35
 x6 | x6 | x6 | x6 | G4 x2 :| %40

